X:153
T: Jock Wilson O' Fenton
R: hp 32 reel
M: 4/4
L: 1/8
K:Dmaj
|:AG|FAd2 d2ed|cdef g2ag|fedc dfaf|gfed cBAG|
FAd2 d2ed|cdef g2ag|fadf efge|f2d2 d2:|
|:dc|Bcde fedc|fedc B2cB|ABcd edcd|edcB ABAG|
FAd2 d2ed|cdef g2ag|fadf efge|f2d2 d2:|

